!!!!SEGMENT: pl-kk--kk-i-382--048_bortnjanskij-dmitrij-stepanovic--z-tej-biednej-ziemi.krn
!!!cenid: 18xx:1550
!!!COM: Bortnjanskij, Dmitrij Stepanovič
!!!COM-rismid: pe30000441
!!!CDT: 1751-1825
!!!CNT: Ukrainian
!!!OTL: Z tej biednej ziemi
!!!PDT:
!!!AGN: Sacred
!!!SMS-siglum: PL-Kk
!!!SMS-shelfmark: Kk.I.382
!!!SMS-shelfwork: 034 W
!!!SMS-variant:
!!!SMS-altvar:
!!!NIFC-rismid: 1001140628
!!!system-decoration: [(s1,s2,s3,s4)]
!!!AIN: 1 alto 1 bass 2 tenor
!!!key:
**kern	**text	**dynam	**kern	**text	**dynam	**kern	**text	**dynam	**kern	**text	**dynam
*part4	*part4	*part4	*part3	*part3	*part3	*part2	*part2	*part2	*part1	*part1	*part1
*staff4	*staff4	*	*staff3	*staff3	*	*staff2	*staff2	*	*staff1	*staff1	*
*Ibass	*	*	*Ialto	*	*	*Itenor	*	*	*Itenor	*	*
*I"Basso II	*	*	*I"Alto vel Bas I	*	*	*I"Tenor II	*	*	*I"Soprano vel. Tenor I	*	*
*I'B.II	*	*	*I'A./B.I	*	*	*I'T.II	*	*	*I'S./T.I	*	*
*clefF4	*	*	*clefF4	*	*	*clefG2	*	*	*clefG2	*	*
*k[b-]	*	*	*k[b-]	*	*	*k[b-]	*	*	*k[b-]	*	*
*F:	*	*	*F:	*	*	*F:	*	*	*F:	*	*
*M3/4	*	*	*M3/4	*	*	*M3/4	*	*	*M3/4	*	*
=1	=1	=1	=1	=1	=1	=1	=1	=1	=1	=1	=1
*2\right	*	*	*2\right	*	*	*2\right	*	*	*2\right	*	*
!LO:TX:t=P:problem=all\right&colon; global	!	!	!LO:TX:t=P:problem=all\right&colon; global	!	!	!LO:TX:t=P:problem=all\right&colon; global	!	!	!LO:TX:t=P:problem=all\right&colon; global	!	!
!LO:TX:a:t=P:global:problem=w źródle oznaczenia dynamiczne piano i forte znajdują się na pięciolinii	!	!	!LO:TX:a:t=P:global:problem=w źródle oznaczenia dynamiczne piano i forte znajdują się na pięciolinii	!	!	!	!	!	!	!	!
!	!	!	!	!	!	!LO:TX:a:t=P:global:problem=w źródle oznaczenia dynamiczne piano i forte znajdują się na pięciolinii	!	!	!LO:TX:a:t=P:global:problem=w źródle oznaczenia dynamiczne piano i forte znajdują się na pięciolinii	!	!
!	!	!LO:DY:b:t=%s.:rj	!	!	!LO:DY:b:t=%s.:rj	!	!	!LO:DY:b:t=%s.:rj	!	!	!LO:DY:b:t=%s.:rj
4F\	Z tej	p	4F\	Z tej	p	4f/	Z tej	p	4a/	Z tej	p
4F\	bie-	.	4F\	bie-	.	4f/	bie-	.	4a/	bied-	.
4F\	-dnej	.	4F\	-dnej	.	4g/	-dnej	.	4b-/	-nej	.
=2	=2	=2	=2	=2	=2	=2	=2	=2	=2	=2	=2
2F\	zie-	.	2F\	zie-	.	2a/	zie-	.	2cc/	zie-	.
!	!	!	!	!	!	!LO:TX:a:t=P:problem=w źródle diminuendo na pięciolinii	!	!	!	!	!
!	!	!LO:HP:a	!	!	!	!	!	!LO:HP:a	!	!	!
4F\	-mi	>	4A\	-mi	.	4cc/	-mi	>	4ff/	-mi	.
=3	=3	=3	=3	=3	=3	=3	=3	=3	=3	=3	=3
(>4BB-/	z tej	]	(>4B-\	z tej	.	(>4dd\	z tej	]	(>4gg/	z tej	.
4C/)	łez	.	4A\)	łez	.	4cc\)	łez	.	4ff/)	łez	.
4C/	do-	.	4G\	do-	.	4cc\	do-	.	4ee/	do-	.
=4	=4	=4	=4	=4	=4	=4	=4	=4	=4	=4	=4
!	!	!LO:HP:a	!	!	!	!	!	!	!	!	!LO:HP:a
2F\	-li-	>	2A\	-li-	.	2cc\	-li-	.	2ff/	-li-	>
4F\	-ny	]	4F\	-ny	.	4a\	-ny	.	4cc/	-ny	]
=5	=5	=5	=5	=5	=5	=5	=5	=5	=5	=5	=5
4BB-/	tę-	.	4F\	tę-	.	4b-\	tę-	.	4dd/	tę-	.
4BB-/	-skny	.	4F\	-skny	.	4dd\	-skny	.	4ff/	-skny	.
4BB-/	się	.	4F\	się	.	4b-\	się	.	4dd/	się	.
=6	=6	=6	=6	=6	=6	=6	=6	=6	=6	=6	=6
2FF/	w nie-	.	2F\	w nie-	.	2a\	w nie-	.	2cc/	w nie-	.
4FF/	-bo	.	(>8F\L	-bo	.	4f\	-bo	.	4a/	-bo	.
.	.	.	8E\J)	.	.	.	.	.	.	.	.
!!LO:LB:g=original
=7	=7	=7	=7	=7	=7	=7	=7	=7	=7	=7	=7
2BB-/	wzno-	.	2D\	wzno-	.	(>4a\	wzno-	.	(>4cc/	wzno-	.
.	.	.	.	.	.	4g\)	.	.	4b-/)	.	.
4BBn/	-si	.	4D\	-si	.	4f\	-si	.	4a/	-si	.
=8	=8	=8	=8	=8	=8	=8	=8	=8	=8	=8	=8
2C/	dźwięk	.	2E\	dźwięk	.	2e/	dźwięk	.	2g/	dzwięk	.
!	!	!LO:DY:b:rj	!	!	!LO:DY:b:rj	!	!	!LO:DY:b:rj	!	!	!
4C/	Wszech-	f	4E\	Wszech-	f	4g/	Wszech-	f	4cc/	Wszech-	.
=9	=9	=9	=9	=9	=9	=9	=9	=9	=9	=9	=9
4F\	-mo-	.	4F\	-mo-	.	4f/	-mo-	.	4a/	-mo-	.
4F\	-cny	.	4F\	-cny	.	4f/	-cny	.	4a/	-cny	.
4F\	nasz	.	4F\	nasz	.	4g/	nasz	.	4b-/	nasz	.
=10	=10	=10	=10	=10	=10	=10	=10	=10	=10	=10	=10
(<2F\	Pa-	.	2F\	Pa-	.	(<2a/	Pa-	.	(<2cc/	Pa-	.
!	!	!	!	!	!LO:HP:a	!	!	!	!	!	!
4F\)	-nie	.	4A\	-nie	>	4cc\)	-nie	.	4ff\)	-nie	.
=11	=11	=11	=11	=11	=11	=11	=11	=11	=11	=11	=11
(>4BB-/	Oj-	.	(>4B-\	Oj-	]	(>4dd\	Oj-	.	(>4gg\	Oj-	.
4C/)	-cze	.	4A\)	-cze	.	4cc\)	-cze	.	4ff\)	-cze	.
4C/	je-	.	4G\	je-	.	4cc\	je-	.	4ee\	je-	.
=12	=12	=12	=12	=12	=12	=12	=12	=12	=12	=12	=12
!LO:TX:a:t=P:problem=w źródle diminuendo na pięciolinii	!	!	!LO:TX:a:t=P:problem=w źródle diminuendo na pięciolinii	!	!	!	!	!	!LO:TX:a:t=P:problem=w źródle diminuendo na pięciolinii	!	!
!	!	!LO:HP:a	!	!	!LO:HP:a	!	!	!	!	!	!LO:HP:b
2F\	-dy-	>	2A\	-dy-	>	(>2cc\	-dy-	.	(>2ff\	-dy-	>
4F\	-ny	]	4F\	-ny	]	4a\)	-ny	.	4cc\)	-ny	]
!!LO:LB:g=original
=13	=13	=13	=13	=13	=13	=13	=13	=13	=13	=13	=13
4BB-/	Ach	.	4F\	Ach	.	4b-\	Ach	.	4dd\	Ach	.
4D/	u-	.	4F\	u-	.	4b-\	u-	.	4ff\	u-	.
4BB-/	-słysz	.	4F\	-słysz	.	4b-\	-słysz	.	4dd\	-słysz	.
=14	=14	=14	=14	=14	=14	=14	=14	=14	=14	=14	=14
2FF/	serc	.	2F\	serc	.	2a/	serc	.	2cc\	serc	.
4FF/	zbo-	.	4C/	zbo-	.	4f/	zbo-	.	4a\	zbo-	.
=15	=15	=15	=15	=15	=15	=15	=15	=15	=15	=15	=15
4.BB-/	-la-	.	4BB-/	-la-	.	2f/	-la-	.	4.dd\	-la-	.
.	.	.	4C/	.	.	.	.	.	.	.	.
8AA/	.	.	.	.	.	.	.	.	8cc\	.	.
(<8GG/L	-łych	.	4C/	-łych	.	(>8e/L	-łych	.	8b-\L	-łych	.
8FF/J)	.	.	.	.	.	8f/J)	.	.	8a\J	.	.
=16	=16	=16	=16	=16	=16	=16	=16	=16	=16	=16	=16
2C/	jęk	.	2C/	jęk	.	2e/	jęk	.	2g\	jęk	.
!	!	!LO:DY:b:t=%s.:rj	!	!	!LO:DY:b:t=%s.:rj	!	!	!LO:DY:b:t=%s.:rj	!	!	!LO:DY:b:t=%s.:rj
4C/	Od-	p	4E\	Od-	p	4g/	Od-	p	4cc\	Od-	p
=17	=17	=17	=17	=17	=17	=17	=17	=17	=17	=17	=17
2C/	-rzu-	.	2G\	-rzu-	.	2b-\	-rzu-	.	2ee\	-rzu-	.
!	!	!LO:HP:a	!	!	!	!	!	!	!	!	!
4B-\	-cać	>	4E\	-cać	.	(<8g/L	-cać	.	4cc\	-cać	.
.	.	.	.	.	.	8cc/J)	.	.	.	.	.
=18	=18	=18	=18	=18	=18	=18	=18	=18	=18	=18	=18
!	!	!	!	!	!	!	!	!	!LO:TX:a:t=P:problem=w źródle diminuendo na pięciolinii	!	!
!	!	!	!	!	!	!	!	!	!	!	!LO:HP:a
2A\	nie	]	2F\	nie	.	2cc\	nie	.	2ff\	nie	>
8A\L	chciej	.	8A\L	chciej	.	8cc\L	chciej	.	8cc\L	chciej	]
8A\J	mo-	.	8A\J	mo-	.	8cc\J	mo-	.	8cc\J	mo-	.
!!LO:LB:g=original
=19	=19	=19	=19	=19	=19	=19	=19	=19	=19	=19	=19
(>4F\	-dli-	.	(>4A\	-dli-	.	2cc\	-dli-	.	(>4aa\	-dli-	.
4E\)	.	.	4B-\)	.	.	.	.	.	4gg\)	.	.
4F\	-twy	.	4A\	-twy	.	4cc\	-twy	.	4ff\	-twy	.
=20	=20	=20	=20	=20	=20	=20	=20	=20	=20	=20	=20
!LO:TX:a:t=P:problem=w źródle diminuendo na pięciolinii	!	!	!	!	!	!	!	!	!	!	!
!	!	!LO:HP:a	!	!	!	!	!	!	!	!	!
(<2D/	tej	>	(>2A\	tej	.	(>2cc\	tej	.	(>2ff\	tej	.
4C/)	.	]	4G\)	.	.	4cc\)	.	.	4ee\)	.	.
=21	=21	=21	=21	=21	=21	=21	=21	=21	=21	=21	=21
!	!	!LO:DY:b:t=%s.:rj	!	!	!LO:DY:b:rj	!	!	!LO:DY:b:t=%s.:rj	!	!	!LO:DY:b:t=%s.:rj
4AA/	u-	p	4F\	u-	p	4cc\	u-	p	4ff\	u-	p
4AA/	-życz	.	4F\	-życz	.	4cc\	-życz	.	4ee\	-życz	.
4BB-/	li-	.	4F\	li-	.	4b-\	li-	.	4dd\	li-	.
=22	=22	=22	=22	=22	=22	=22	=22	=22	=22	=22	=22
!LO:TX:a:t=P:problem=w źródle diminuendo na pięciolinii	!	!	!	!	!	!	!	!	!	!	!
!	!	!LO:HP:a	!	!	!	!	!	!	!	!	!
2FF/	-to-	>	2F\	-to-	.	2a/	-to-	.	2cc\	-to-	.
4F\	-ści	]	4F\	-ści	.	4a/	-ści	.	4a\	-ści	.
=23	=23	=23	=23	=23	=23	=23	=23	=23	=23	=23	=23
(<4BB-/	u-	.	4F\	u-	.	(>4b-/	u-	.	(>4dd\	u-	.
4C/)	-życz	.	4F\	-życz	.	4a/)	-życz	.	4cc\)	-życz	.
4D/	li-	.	4F\	li-	.	4f/	li-	.	4b-\	li-	.
=24	=24	=24	=24	=24	=24	=24	=24	=24	=24	=24	=24
[>2.C/	-to-	.	(>2.F\	-to-	.	[>2.f/	-to-	.	2.a\	-to-	.
!!LO:LB:g=original
=25	=25	=25	=25	=25	=25	=25	=25	=25	=25	=25	=25
!	!	!	!LO:TX:a:t=P:problem=w źródle brak zakończenia łuku	!	!	!LO:TX:a:t=P:problem=w źródle brak zakończenia ligatury	!	!	!	!	!
2C/]	.	.	2C\)	.	.	(>4f/]	.	.	2g\	.	.
.	.	.	.	.	.	8e/L	.	.	.	.	.
.	.	.	.	.	.	8d/J	.	.	.	.	.
4C/	-ści	.	4C\	-ści	.	4e/)	-ści	.	4g\	-ści	.
=26	=26	=26	=26	=26	=26	=26	=26	=26	=26	=26	=26
2.FF;>/	Twej.	.	2.F;\	Twej.	.	2.f;>/	Twej.	.	2.f;>\	Twej.	.
==	==	==	==>	==	==	==	==	==	==	==	==
*-	*-	*-	*-	*-	*-	*-	*-	*-	*-	*-	*-
!!title: @{OTL};
!!!RDF**kern: > = above
!!!RDF**kern: < = below
!!!EED: Wojciech Jakubiak-Danek
!!!EST: 2021-02-10
!!!URL-scan: http://repozytorium.nifc.pl/skany/pl-kk-nut--i-382
!!!ONB-nifc: UWAGA: obsada: S/T1, T2, A/B1, B2. Skany 0039, 0111, 0182, 0259
!!!ENC: Andrzej Gręziak
!!!END: 2021-01-30
